X:363
T:Uncle's Jig
S:Trad
O:England
M:6/8
L:1/8
R:Jig 32
K:D
|:A2d c2e | d2f a2f | e2f gfe |d2f A3  |
|A2d c2e | d2f a2f | e2f gfe |1  d3 B3 :|2 d3 B2=c||

